X:7
T:63. The Crooked Road to Dublin
S:Mike Rafferty
Z:Lesl
M:C|
L:1/8
K:G
(3DEF|:G2AG FGAF|G~GFG AdcA|G2AG FAdg|fdcA d2cA:|
|d~g3 fgaf|d~g3 a2gf|dggf gbag|fdcA d2cA|
d~g3 fgaf|d~g3 a2ga|bgaf g2ag|fdcA d2cA|G8|
"1st part variations:"
G{A}GAG FGAF|~G2FG AdcA|GBAG FAdg|fdcA (3Bcd cA|
GzAG FGAF|G2FG AdcA|GzAG FAdg|fdcA d2cA||

